X: 1
T: Franc A'Phoill
R: jig
M: 6/8
L: 1/8
K: Dmaj
|:A2D B2D|A2G FED|A2D B2D|GAG FED|A2D B2D|A2G FED|=CEG =cBA|GAG FED:|dfa afd|ded cAG|FGA =cAF|GEF GFE|dfa afa|geg fdf|e=cA FGA|GEF GFE:|dfd dfd|dAG FED|dfd dAF|GEF GED|dfd cec|BdB AFD|=CEG =cBA|GAG FED:||:dDD cDD|BDD ADD|dDD cDD|GAG FED|dDD cDD|BDD ADD|=CEG =cBA|GAG FED:|


Tune 31	Setting 12491

